assets/icons/favicon.svg

<svg xmlns="http://www.w3.org/2000/svg" xmlns:xlink="http://www.w3.org/1999/xlink" width="500" zoomAndPan="magnify" viewBox="0 0 375 374.999991" height="500" preserveAspectRatio="xMidYMid meet" version="1.0"><path fill="rgb(86.268616%, 26.669312%, 21.569824%)" d="M 290.25 288.832031 C 272.722656 296.75 242.953125 298.8125 203.464844 288.921875 C 207.933594 287.214844 212.480469 285.328125 217.113281 283.277344 C 254.722656 291.597656 283.863281 289.488281 300.488281 281.976562 C 301.816406 281.378906 303.117188 280.792969 304.386719 280.222656 C 302.335938 283.640625 296.480469 286.019531 290.25 288.832031 Z M 88.878906 289.671875 C 82.589844 286.984375 76.6875 284.730469 74.574219 281.359375 C 75.84375 281.910156 77.164062 282.457031 78.507812 283.035156 C 94.726562 289.960938 122.546875 291.585938 158.222656 283.480469 C 162.835938 285.480469 167.359375 287.320312 171.808594 288.996094 C 134.433594 298.570312 105.984375 296.992188 88.878906 289.671875 Z M 201.945312 279.460938 C 197.03125 281.292969 192.246094 282.957031 187.574219 284.453125 C 182.925781 282.996094 178.15625 281.371094 173.273438 279.597656 C 177.945312 278.257812 182.722656 276.738281 187.59375 275.070312 C 192.488281 276.699219 197.265625 278.152344 201.945312 279.460938 Z M 318.792969 262.648438 C 297.664062 269.128906 277.351562 267.394531 258.535156 260.789062 C 303.152344 232.03125 341.820312 191.4375 341.65625 156.226562 C 341.550781 156.207031 336.792969 155.089844 330.128906 151.875 C 341.386719 186.257812 295.199219 232.175781 250.039062 257.445312 C 246.5625 255.925781 243.136719 254.25 239.773438 252.429688 C 285.492188 227.910156 331.460938 181.285156 320.316406 146.203125 C 314.105469 141.964844 307.488281 136.109375 301.835938 128.105469 C 301.691406 127.953125 301.546875 127.796875 301.429688 127.664062 L 301.21875 127.449219 L 301.335938 127.382812 C 297.144531 121.285156 293.515625 113.96875 291.039062 105.214844 C 253.59375 102.863281 230.875 153.214844 230.875 153.214844 C 230.875 153.214844 214.832031 182.492188 188.203125 211.429688 C 161.667969 183.433594 145.5 155.292969 145.5 155.292969 C 145.5 155.292969 121.75 105.425781 84.363281 108.535156 C 82.070312 117.347656 78.589844 124.734375 74.519531 130.917969 L 74.636719 130.984375 L 74.429688 131.207031 C 74.3125 131.339844 74.179688 131.496094 74.039062 131.648438 C 68.550781 139.769531 62.050781 145.757812 55.933594 150.113281 C 45.671875 184.839844 90.890625 229.605469 136.347656 253.507812 C 132.960938 255.347656 129.503906 257.042969 125.996094 258.574219 C 81.117188 233.949219 35.867188 189.964844 46.230469 155.996094 C 39.636719 159.347656 34.902344 160.5625 34.792969 160.582031 C 35.347656 195.144531 73.410156 234.121094 117.558594 261.886719 C 99.570312 268.15625 80.132812 269.871094 59.808594 264.082031 C 51.746094 261.789062 39.425781 259.46875 35.285156 270.023438 C 31.8125 278.867188 42.738281 282.765625 54.664062 287.859375 C 84.632812 300.679688 128.183594 312.699219 187.636719 294.390625 C 249.515625 313.226562 294.066406 300.042969 324.421875 286.328125 C 336.238281 280.984375 347.082031 276.851562 343.433594 268.078125 C 339.078125 257.621094 326.808594 260.191406 318.796875 262.648438 " fill-opacity="1" fill-rule="nonzero"/><path fill="rgb(86.268616%, 26.669312%, 21.569824%)" d="M 70.230469 130.695312 C 70.367188 130.542969 70.507812 130.386719 70.617188 130.242188 L 70.828125 130.03125 L 70.714844 129.964844 C 74.796875 123.753906 78.289062 116.328125 80.585938 107.46875 C 80.585938 107.46875 65.542969 109.085938 54.433594 117.820312 C 35.644531 100.011719 25.597656 76.519531 25.597656 76.519531 L 18.84375 80.585938 C 23.492188 103.09375 31.9375 119.265625 41.105469 130.820312 C 39.679688 132.371094 28.222656 145.355469 30.96875 159.628906 C 30.96875 159.628906 54.675781 153.714844 70.230469 130.695312 " fill-opacity="1" fill-rule="nonzero"/><path fill="rgb(86.268616%, 26.669312%, 21.569824%)" d="M 356.230469 75.253906 L 349.390625 71.324219 C 349.390625 71.324219 339.828125 95.015625 321.414062 113.195312 C 310.125 104.691406 295.054688 103.394531 295.054688 103.394531 C 297.53125 112.195312 301.171875 119.554688 305.378906 125.679688 L 305.261719 125.746094 L 305.484375 125.957031 C 305.601562 126.09375 305.746094 126.246094 305.878906 126.390625 C 321.90625 149.101562 345.722656 154.523438 345.722656 154.523438 C 348.179688 140.191406 336.457031 127.449219 334.992188 125.929688 C 343.929688 114.1875 352.039062 97.84375 356.230469 75.253906 " fill-opacity="1" fill-rule="nonzero"/></svg>

<svg xmlns="http://www.w3.org/2000/svg" width="500" viewBox="0 0 375 375" height="500" version="1.0"><path fill="#DC4437" d="M290.25 288.832c-17.527 7.918-47.297 9.98-86.785.09a285 285 0 0 0 13.648-5.645c37.61 8.32 66.75 6.211 83.375-1.3l3.899-1.754c-2.051 3.418-7.907 5.797-14.137 8.609m-201.371.84c-6.29-2.688-12.192-4.942-14.305-8.313 1.27.551 2.59 1.098 3.934 1.676 16.219 6.926 44.039 8.55 79.715.445 4.613 2 9.136 3.84 13.586 5.516-37.375 9.574-65.825 7.996-82.93.676m113.066-10.211a324 324 0 0 1-14.37 4.992 339 339 0 0 1-14.302-4.855c4.672-1.34 9.45-2.86 14.32-4.528a308 308 0 0 0 14.352 4.39m116.848-16.813c-21.129 6.48-41.441 4.747-60.258-1.859 44.617-28.758 83.285-69.351 83.121-104.562-.105-.02-4.863-1.137-11.527-4.352 11.258 34.383-34.93 80.3-80.09 105.57a136 136 0 0 1-10.266-5.015c45.72-24.52 91.688-71.145 80.543-106.227-6.21-4.238-12.828-10.094-18.48-18.098a15 15 0 0 1-.406-.44l-.211-.216.117-.066c-4.191-6.098-7.82-13.414-10.297-22.168-37.445-2.352-60.164 48-60.164 48s-16.043 29.277-42.672 58.215c-26.535-27.996-42.703-56.137-42.703-56.137s-23.75-49.867-61.137-46.758c-2.293 8.813-5.773 16.2-9.843 22.383l.117.066-.207.223c-.118.133-.25.29-.39.441-5.49 8.122-11.99 14.11-18.106 18.465-10.262 34.727 34.957 79.492 80.414 103.395a134 134 0 0 1-10.352 5.066c-44.879-24.625-90.129-68.61-79.766-102.578-6.593 3.352-11.328 4.566-11.437 4.586.555 34.563 38.617 73.54 82.766 101.305-17.989 6.27-37.426 7.984-57.75 2.195-8.063-2.293-20.383-4.613-24.524 5.941-3.472 8.844 7.453 12.743 19.38 17.836 29.968 12.82 73.519 24.84 132.972 6.532 61.879 18.836 106.43 5.652 136.785-8.063 11.816-5.344 22.66-9.476 19.012-18.25-4.356-10.457-16.625-7.887-24.637-5.43"/><path fill="#DC4437" d="M70.23 130.695c.137-.152.278-.308.387-.453l.211-.21-.113-.067c4.082-6.211 7.574-13.637 9.87-22.496 0 0-15.042 1.617-26.151 10.351-18.79-17.808-28.836-41.3-28.836-41.3l-6.754 4.066c4.648 22.508 13.093 38.68 22.261 50.234-1.425 1.551-12.882 14.535-10.136 28.809 0 0 23.707-5.914 39.261-28.934m286-55.441-6.84-3.93s-9.562 23.692-27.976 41.871c-11.289-8.504-26.36-9.8-26.36-9.8 2.477 8.8 6.118 16.16 10.325 22.285l-.117.066.222.211c.118.137.262.29.395.434 16.027 22.71 39.844 28.132 39.844 28.132 2.457-14.332-9.266-27.074-10.73-28.593 8.937-11.743 17.046-28.086 21.237-50.676"/></svg>
